X:639
T:Reel 639
M:4/4
K:Dmaj
L:1/8
A^GEC D2DC|A,B,CD EFGE|A^GEC DFEC|A,CEG FDDz:|Addc d2cd|edef dcAd|ABcd ecdB|cAGE FDEC|Addc d2ed|cdcA e2dB|Afed  (3c=BA B^G|AFDF ECA,2|
